Flat-Remix-Dark/apps/scalable/vectr.svg

<svg xmlns="http://www.w3.org/2000/svg" xmlns:xlink="http://www.w3.org/1999/xlink" width="384pt" height="384pt" version="1.1" viewBox="0 0 384 384">
 <defs>
  <filter id="alpha" width="100%" height="100%" x="0%" y="0%" filterUnits="objectBoundingBox">
   <feColorMatrix in="SourceGraphic" type="matrix" values="0 0 0 0 1 0 0 0 0 1 0 0 0 0 1 0 0 0 1 0"/>
  </filter>
  <mask id="mask2">
   <g filter="url(#alpha)">
    <rect width="384" height="384" x="0" y="0" style="fill:rgb(0%,0%,0%);fill-opacity:0.2"/>
   </g>
  </mask>
  <clipPath id="clip3">
   <rect width="384" height="384" x="0" y="0"/>
  </clipPath>
  <g id="surface11" clip-path="url(#clip3)">
   <path style="fill:rgb(0%,0%,0%)" d="M 134.671875 113.910156 C 131.972656 113.90625 129.125 114.003906 126.070312 114.003906 C 110.644531 113.683594 95.207031 114.203125 79.78125 114.003906 C 69.085938 113.921875 71.554688 127.03125 74.648438 132.542969 C 108.871094 193.519531 149.3125 261.820312 187.007812 326.183594 C 194.25 336.871094 201.886719 322.359375 205.945312 316.152344 C 216.203125 300.46875 224.652344 284.03125 233.320312 267.589844 C 236.980469 256.542969 226.746094 248.039062 223.101562 238.667969 C 200.867188 199.179688 177.488281 160.433594 154.78125 121.292969 C 149.347656 114.777344 142.769531 113.925781 134.671875 113.910156 Z M 246.492188 114.003906 C 234.984375 114.003906 242.296875 126.964844 242.296875 126.964844 C 242.296875 126.964844 259.546875 159.667969 269.484375 177.566406 C 279.421875 195.464844 284.785156 180.0625 287.273438 175.105469 C 296.230469 157.277344 304.011719 138.699219 310.289062 126.355469 C 316.566406 114.011719 303.492188 114.003906 303.492188 114.003906 Z M 246.492188 114.003906"/>
  </g>
  <mask id="mask3">
   <g filter="url(#alpha)">
    <rect width="384" height="384" x="0" y="0" style="fill:rgb(0%,0%,0%);fill-opacity:0.2"/>
   </g>
  </mask>
  <clipPath id="clip4">
   <rect width="384" height="384" x="0" y="0"/>
  </clipPath>
  <g id="surface14" clip-path="url(#clip4)">
   <path style="fill:rgb(100.000%,100.000%,100.000%)" d="M 134.671875 107.90625 C 131.972656 107.902344 129.125 108 126.070312 108 C 110.644531 107.675781 95.207031 108.195312 79.78125 108 C 72.453125 107.941406 71.363281 114.0625 72.363281 119.707031 C 73.070312 116.46875 75.136719 113.964844 79.78125 114 C 95.207031 114.195312 110.644531 113.675781 126.070312 114 C 129.125 114 131.972656 113.902344 134.671875 113.90625 C 142.769531 113.917969 149.347656 114.773438 154.78125 121.289062 C 177.488281 160.429688 200.867188 199.175781 223.101562 238.664062 C 225.808594 245.621094 232.125 252.121094 233.707031 259.523438 C 235.550781 249.472656 226.511719 241.433594 223.101562 232.664062 C 200.867188 193.175781 177.488281 154.429688 154.78125 115.289062 C 149.347656 108.773438 142.769531 107.917969 134.671875 107.90625 Z M 246.492188 108 C 239.257812 108 239.460938 113.113281 240.609375 116.917969 C 241.363281 115.253906 243 114 246.492188 114 L 303.492188 114 C 303.492188 114 309.238281 114.09375 311.238281 117.785156 C 314.402344 108.128906 303.492188 108 303.492188 108 Z M 246.492188 108"/>
  </g>
 </defs>
 <g>
  <path style="fill:#2d303b" d="M 192 24 C 99.214844 24 24 99.214844 24 192 C 24 284.785156 99.214844 360 192 360 C 284.785156 360 360 284.785156 360 192 C 360 99.214844 284.785156 24 192 24 Z M 192 24"/>
  <use mask="url(#mask2)" xlink:href="#surface11"/>
  <path style="fill:#ffffff" d="M 134.671875 107.90625 C 131.972656 107.902344 129.125 108 126.070312 108 C 110.644531 107.675781 95.207031 108.195312 79.78125 108 C 69.085938 107.914062 71.554688 121.023438 74.648438 126.539062 C 108.871094 187.515625 149.3125 255.8125 187.007812 320.179688 C 194.25 330.863281 201.886719 316.355469 205.945312 310.148438 C 216.203125 294.460938 224.652344 278.023438 233.320312 261.585938 C 236.980469 250.535156 226.746094 242.03125 223.101562 232.664062 C 200.867188 193.175781 177.488281 154.429688 154.78125 115.289062 C 149.347656 108.773438 142.769531 107.917969 134.671875 107.90625 Z M 246.492188 108 C 234.984375 108 242.296875 120.960938 242.296875 120.960938 C 242.296875 120.960938 259.546875 153.664062 269.484375 171.5625 C 279.421875 189.460938 284.785156 174.058594 287.273438 169.101562 C 296.230469 151.269531 304.011719 132.695312 310.289062 120.351562 C 316.566406 108.007812 303.492188 108 303.492188 108 Z M 246.492188 108"/>
  <use mask="url(#mask3)" xlink:href="#surface14" style="fill:#ffffff"/>
 </g>
 <path style="fill:#ffffff;opacity:0.3" d="M 256 32 C 132.28646 32 32 132.28648 32 256 C 32 257.6718 32.026062 259.33694 32.0625 261 C 34.722471 139.59674 133.95827 42 256 42 C 378.04176 42 477.27753 139.59674 479.9375 261 C 479.97394 259.33694 480 257.67181 480 256 C 480 132.28648 379.71355 32 256 32 z" transform="scale(0.75)"/>
 <path d="M 32.0625 251 C 32.026062 252.66306 32 254.3282 32 256 C 32 379.71355 132.28647 480 256 480 C 379.71355 480 480 379.71356 480 256 C 480 254.3282 479.97394 252.66306 479.9375 251 C 477.27753 372.4033 378.04174 470 256 470 C 133.95828 470 34.722471 372.40329 32.0625 251 z" transform="scale(0.75)"/>
</svg>

<svg width="512" height="512" version="1.1" viewBox="0 0 384 384" xmlns="http://www.w3.org/2000/svg"><path d="m192 24c-92.785 0-168 75.215-168 168 0 92.785 75.215 168 168 168 92.785 0 168-75.215 168-168 0-92.785-75.215-168-168-168z" fill="#2d303b"/><path d="m134.67 115.41c-2.6992-4e-3 -5.5469 0.0937-8.6016 0.0937-15.426-0.32422-30.863 0.19531-46.289 0-10.695-0.0859-8.2266 13.023-5.1328 18.539 34.223 60.977 74.664 129.27 112.36 193.64 7.2422 10.684 14.879-3.8242 18.938-10.031 10.258-15.688 18.707-32.125 27.375-48.562 3.6602-11.051-6.5742-19.555-10.219-28.922-22.234-39.488-45.613-78.234-68.32-117.38-5.4336-6.5156-12.012-7.3711-20.109-7.3828zm111.82 0.0937c-11.508 0-4.1953 12.961-4.1953 12.961s17.25 32.703 27.188 50.602 15.301 2.4961 17.789-2.4609c8.957-17.832 16.738-36.406 23.016-48.75 6.2774-12.344-6.7969-12.352-6.7969-12.352z" opacity=".3"/><path d="m134.67 107.91c-2.6992-4e-3 -5.5469 0.0937-8.6016 0.0937-15.426-0.32422-30.863 0.19531-46.289 0-10.695-0.0859-8.2266 13.023-5.1328 18.539 34.223 60.977 74.664 129.27 112.36 193.64 7.2422 10.684 14.879-3.8242 18.938-10.031 10.258-15.688 18.707-32.125 27.375-48.562 3.6602-11.051-6.5742-19.555-10.219-28.922-22.234-39.488-45.613-78.234-68.32-117.38-5.4336-6.5156-12.012-7.3711-20.109-7.3828zm111.82 0.09375c-11.508 0-4.1953 12.961-4.1953 12.961s17.25 32.703 27.188 50.602 15.301 2.4961 17.789-2.4609c8.957-17.832 16.738-36.406 23.016-48.75 6.2774-12.344-6.7969-12.352-6.7969-12.352z" fill="#fff"/><path transform="scale(.75)" d="m256 32c-123.71 0-224 100.29-224 224 0 1.6718 0.026062 3.3369 0.0625 5 2.66-121.4 101.9-219 223.94-219 122.04 0 221.28 97.597 223.94 219 0.03644-1.6631 0.0625-3.3282 0.0625-5 0-123.71-100.29-224-224-224z" fill="#fff" opacity=".3"/><path transform="scale(.75)" d="m32.062 251c-0.036438 1.6631-0.0625 3.3282-0.0625 5 0 123.71 100.29 224 224 224 123.71 0 224-100.29 224-224 0-1.6718-0.02606-3.3369-0.0625-5-2.66 121.4-101.9 219-223.94 219-122.04 0-221.28-97.597-223.94-219z"/></svg>
